; generated by PrusaSlicer 2.9.4 on 2025-11-29 at 22:16:05 UTC


;
;
; 

; external perimeters extrusion width = 0.60mm
; perimeters extrusion width = 0.50mm
; infill extrusion width = 0.50mm
; solid infill extrusion width = 0.50mm
; top infill extrusion width = 0.45mm
; support material extrusion width = 0.38mm
; first layer extrusion width = 0.42mm

M73 P0 R45
M73 Q0 S45
M201 X1000 Y1000 Z200 E5000 ; sets maximum accelerations, mm/sec^2
M203 X200 Y200 Z12 E120 ; sets maximum feedrates, mm / sec
M204 S1250 T1250 ; sets acceleration (S) and retract acceleration (R), mm/sec^2
M205 X8.00 Y8.00 Z0.40 E4.50 ; sets the jerk limits, mm/sec
M205 S0 T0 ; sets the minimum extruding and travel feed rate, mm/sec

; printing object 3d_print_mini id:0 copy 0
; stop printing object 3d_print_mini id:0 copy 0

;TYPE:Custom
M862.3 P "MK3S" ; printer model check
M862.1 P0.4 ; nozzle diameter check
M115 U3.14.1 ; tell printer latest fw version
G90 ; use absolute coordinates
M83 ; extruder relative mode
M104 S215 ; set extruder temp
M140 S60 ; set bed temp
M190 S60 ; wait for bed temp
M109 S215 ; wait for extruder temp
G28 W ; home all without mesh bed level
G80 X103.277 Y69.3835 W41.1299 H71.233 ; mesh bed levelling

G1 Z0.2 F720
G1 Y-3 F1000 ; go outside print area
G92 E0
G1 X60 E9 F1000 ; intro line
G1 X100 E12.5 F1000 ; intro line

G92 E0
M221 S95

; Don't change E values below. Excessive value can damage the printer.

M907 E538 ; set extruder motor current
G21 ; set units to millimeters
G90 ; use absolute coordinates
M83 ; use relative distances for extrusion

M900 K0.05 ; Filament gcode LA 1.5
M900 K30 ; Filament gcode LA 1.0




M107
;LAYER_CHANGE
;Z:0.2
;HEIGHT:0.2
G1 E-.8 F2100
G1 Z.6 F720
G1 X108.738 Y84.217 F10800
G1 Z.2 F720
G1 E.8 F2100
M204 S800
;TYPE:Skirt/Brim
;WIDTH:0.42
G1 F1200
G1 X122.742 Y70.213 E.62096
G1 X124.29 Y69.572 E.05253
G1 X134.973 Y69.572 E.33496
G1 X136.52 Y70.213 E.0525
G1 X138.946 Y72.639 E.10757
G1 X139.522 Y73.656 E.03665
G1 X144.153 Y92.181 E.59871
G1 X144.219 Y92.712 E.01678
G1 X144.219 Y119.604 E.84318
G1 X144.134 Y120.205 E.01903
G1 X139.503 Y136.415 E.52859
G1 X138.946 Y137.361 E.03442
G1 X136.52 Y139.787 E.10757
G1 X134.973 Y140.428 E.0525
G1 X124.29 Y140.428 E.33496
G1 X122.849 Y139.886 E.04827
G1 X104.324 Y123.677 E.77179
G1 X104.107 Y123.467 E.00947
G1 X103.466 Y121.92 E.0525
G1 X103.483 Y108.65 E.41607
G1 X105.798 Y90.125 E.58536
G1 X106.012 Y89.417 E.02319
G1 X108.328 Y84.786 E.16235
G1 X108.703 Y84.266 E.0201
M204 S1000
;WIPE_START
G1 F8640
G1 X108.738 Y84.217 E-.0139
G1 X111.145 Y81.81 E-.7861
;WIPE_END
G1 Z.6 F720
G1 X116.946 Y91.501 F10800
G1 Z.2 F720
G1 E.8 F2100
M204 S800
G1 F1200
G1 X117.491 Y90.881 E.02588
G1 X118.301 Y90.18 E.03359
G1 X119.355 Y89.467 E.0399
G1 X120.689 Y88.85 E.04608
G1 X123.8 Y88.436 E.0984
G1 X125.33 Y88.709 E.04873
G1 X126.749 Y89.236 E.04746
G1 X128.338 Y90.29 E.05979
G1 X129.163 Y89.931 E.02821
G1 X130.098 Y89.719 E.03006
G1 X131.017 Y89.659 E.02888
G1 X131.906 Y89.726 E.02795
G1 X132.717 Y89.915 E.02611
G1 X133.524 Y90.215 E.02699
G1 X134.287 Y90.645 E.02746
G1 X135.235 Y91.381 E.03763
G1 X136.3 Y92.606 E.05089
G1 X137.382 Y94.566 E.0702
G1 X137.902 Y96.069 E.04987
G1 X138.214 Y97.254 E.03842
G1 X138.4 Y98.179 E.02958
G1 X138.587 Y99.827 E.052
G1 X138.533 Y102.366 E.07963
G1 X138.228 Y104.39 E.06418
G1 X137.76 Y105.533 E.03873
G1 X137.237 Y106.449 E.03307
G1 X138.279 Y108.673 E.07701
G1 X138.444 Y109.782 E.03515
G1 X138.587 Y111.255 E.0464
G1 X138.593 Y112.881 E.05098
G1 X138.404 Y114.514 E.05154
G1 X137.963 Y116.28 E.05707
G1 X137.142 Y118.26 E.06721
G1 X135.757 Y120.105 E.07233
G1 X134.509 Y121.067 E.04941
G1 X133.103 Y121.692 E.04824
G1 X131.155 Y121.929 E.06153
G1 X129.523 Y121.65 E.05191
G1 X128.197 Y121.082 E.04523
G1 X127.777 Y120.789 E.01606
G1 X126.144 Y121.525 E.05616
G1 X125.064 Y121.791 E.03487
G1 X123.213 Y121.932 E.0582
G1 X121.074 Y121.594 E.0679
G1 X119.68 Y121.061 E.04679
G1 X118.712 Y120.518 E.0348
G1 X117.836 Y119.896 E.03369
G1 X117.059 Y119.168 E.03338
G1 X116.334 Y118.353 E.0342
G1 X115.483 Y116.989 E.05041
G1 X114.995 Y115.91 E.03713
G1 X114.636 Y114.784 E.03706
G1 X114.344 Y112.688 E.06635
G1 X114.389 Y111.437 E.03925
G1 X114.61 Y109.896 E.04881
G1 X115.043 Y108.294 E.05203
G1 X115.67 Y107.063 E.04332
G1 X116.407 Y105.925 E.04251
G1 X114.991 Y103.25 E.0949
G1 X114.475 Y100.857 E.07676
G1 X114.343 Y98.657 E.0691
G1 X114.573 Y96.573 E.06574
G1 X114.911 Y95.257 E.0426
G1 X115.318 Y94.16 E.03669
G1 X116.185 Y92.491 E.05897
G1 X116.8 Y91.668 E.03221
G1 X116.907 Y91.546 E.00509
M204 S1000
G1 X117.226 Y91.805 F10800
M204 S800
G1 F1200
G1 X117.766 Y91.139 E.02688
G1 X118.522 Y90.485 E.03134
G1 X119.528 Y89.802 E.03813
G1 X120.822 Y89.204 E.0447
G1 X123.763 Y88.812 E.09303
G1 X125.247 Y89.078 E.04727
G1 X126.6 Y89.583 E.04528
G1 X127.786 Y90.32 E.04378
G1 X128.275 Y90.731 E.02003
G1 X129.264 Y90.294 E.0339
G1 X130.166 Y90.09 E.029
G1 X131.028 Y90.037 E.02708
G1 X131.835 Y90.096 E.02537
G1 X133.353 Y90.552 E.0497
G1 X134.067 Y90.951 E.02565
G1 X134.989 Y91.667 E.0366
G1 X136.002 Y92.837 E.04852
G1 X137.044 Y94.734 E.06786
G1 X137.54 Y96.171 E.04766
G1 X138.029 Y98.245 E.06681
G1 X138.211 Y99.861 E.05099
G1 X138.157 Y102.336 E.07762
G1 X137.87 Y104.269 E.06127
G1 X137.417 Y105.375 E.03747
M73 P0 R44
G1 X136.817 Y106.44 E.03833
G1 X137.925 Y108.807 E.08194
G1 X138.21 Y111.265 E.07759
G1 X138.216 Y112.871 E.05036
G1 X138.033 Y114.444 E.04965
G1 X137.605 Y116.16 E.05545
G1 X136.827 Y118.052 E.06414
G1 X135.505 Y119.823 E.06929
G1 X134.335 Y120.731 E.04644
G1 X132.976 Y121.336 E.04664
G1 X131.191 Y121.552 E.05638
G1 X129.65 Y121.295 E.04898
G1 X128.365 Y120.743 E.04385
G1 X127.785 Y120.33 E.02232
G1 X126.762 Y120.881 E.03643
G1 X126.019 Y121.169 E.02499
G1 X125.009 Y121.418 E.03262
G1 X123.217 Y121.555 E.05635
G1 X121.19 Y121.234 E.06435
G1 X119.828 Y120.714 E.04571
G1 X118.906 Y120.195 E.03317
G1 X118.084 Y119.612 E.0316
G1 X117.334 Y118.91 E.03221
G1 X116.638 Y118.128 E.03282
G1 X115.815 Y116.81 E.04872
G1 X115.351 Y115.785 E.03528
G1 X115 Y114.685 E.0362
G1 X114.721 Y112.685 E.06332
G1 X114.764 Y111.471 E.03809
G1 X114.979 Y109.97 E.04754
G1 X115.388 Y108.447 E.04944
G1 X116.001 Y107.243 E.04236
G1 X116.668 Y106.215 E.03842
G1 X116.953 Y105.909 E.01311
G1 X116.657 Y105.595 E.01353
G1 X115.336 Y103.097 E.0886
G1 X114.851 Y100.82 E.073
G1 X114.72 Y98.683 E.06713
G1 X114.946 Y96.628 E.06482
G1 X115.268 Y95.379 E.04044
G1 X115.663 Y94.312 E.03567
G1 X116.493 Y92.708 E.05663
G1 X117.188 Y91.852 E.03457
M204 S1000
G1 X117.445 Y92.077 F10800
M204 S800
G1 F1200
G1 X118.04 Y91.398 E.02831
G1 X118.76 Y90.778 E.02979
G1 X119.7 Y90.138 E.03566
G1 X120.954 Y89.559 E.04331
M73 Q1 S45
G1 X123.725 Y89.188 E.08766
M73 P1 R44
G1 X125.163 Y89.446 E.04581
G1 X126.449 Y89.929 E.04307
G1 X127.574 Y90.632 E.04159
G1 X128.254 Y91.208 E.02794
G1 X129.366 Y90.658 E.0389
G1 X130.234 Y90.461 E.02791
G1 X131.037 Y90.414 E.02522
G1 X131.765 Y90.467 E.02289
G1 X132.48 Y90.632 E.02301
G1 X133.183 Y90.889 E.02347
G1 X133.847 Y91.258 E.02382
G1 X134.743 Y91.953 E.03555
G1 X135.703 Y93.068 E.04613
G1 X136.705 Y94.9 E.06547
G1 X137.482 Y97.435 E.08313
G1 X137.836 Y99.893 E.07786
G1 X137.781 Y102.306 E.07568
G1 X137.512 Y104.147 E.05834
G1 X137.074 Y105.219 E.03631
G1 X136.33 Y106.424 E.0444
G1 X136.483 Y106.618 E.00775
G1 X137.556 Y108.889 E.07875
G1 X137.833 Y111.275 E.07531
G1 X137.84 Y112.839 E.04904
G1 X137.663 Y114.373 E.04842
G1 X137.247 Y116.041 E.0539
G1 X136.512 Y117.844 E.06105
G1 X135.254 Y119.541 E.06623
G1 X134.122 Y120.419 E.04492
G1 X132.85 Y120.979 E.04358
G1 X131.175 Y121.175 E.05288
G1 X129.737 Y120.927 E.04575
G1 X128.535 Y120.406 E.04108
G1 X127.795 Y119.871 E.02863
G1 X126.6 Y120.54 E.04294
G1 X125.894 Y120.813 E.02373
G1 X124.955 Y121.044 E.03032
G1 X123.22 Y121.177 E.05456
G1 X121.306 Y120.875 E.06075
G1 X119.976 Y120.367 E.04464
G1 X119.1 Y119.871 E.03156
G1 X118.313 Y119.312 E.03027
G1 X117.61 Y118.653 E.03021
G1 X116.941 Y117.904 E.03149
G1 X116.147 Y116.631 E.04704
G1 X115.7 Y115.64 E.03409
G1 X115.365 Y114.586 E.03468
G1 X115.099 Y112.681 E.06031
G1 X115.14 Y111.504 E.03693
G1 X115.349 Y110.044 E.04624
G1 X115.734 Y108.6 E.04686
G1 X116.323 Y107.44 E.04079
G1 X116.974 Y106.436 E.03752
G1 X117.487 Y105.901 E.02324
G1 X116.975 Y105.391 E.02266
G1 X115.682 Y102.944 E.08678
G1 X115.223 Y100.756 E.0701
G1 X115.096 Y98.708 E.06434
G1 X115.32 Y96.683 E.06388
G1 X115.625 Y95.5 E.03831
G1 X116.008 Y94.464 E.03463
G1 X116.802 Y92.925 E.0543
G1 X117.377 Y92.154 E.03016
G1 X117.405 Y92.122 E.00133
M204 S1000
G1 X117.726 Y92.383 F10800
M204 S800
G1 F1200
G1 X118.315 Y91.657 E.02931
G1 X118.998 Y91.071 E.02822
G1 X119.873 Y90.474 E.03321
G1 X121.087 Y89.913 E.04193
G1 X123.688 Y89.565 E.08228
G1 X125.08 Y89.814 E.04434
G1 X126.297 Y90.275 E.0408
G1 X127.362 Y90.944 E.03943
G1 X128.22 Y91.676 E.03536
G1 X129.468 Y91.022 E.04418
G1 X130.302 Y90.832 E.02682
G1 X131.695 Y90.838 E.04368
G1 X133.014 Y91.226 E.04311
G1 X133.628 Y91.565 E.02199
G1 X134.496 Y92.239 E.03446
G1 X135.404 Y93.298 E.04374
G1 X136.366 Y95.066 E.06311
G1 X136.814 Y96.376 E.04341
G1 X137.286 Y98.377 E.06446
G1 X137.46 Y99.926 E.04887
G1 X137.406 Y102.276 E.0737
G1 X137.154 Y104.027 E.05547
G1 X136.743 Y105.037 E.03419
G1 X136.251 Y105.913 E.0315
G1 X135.83 Y106.446 E.0213
G1 X136.158 Y106.81 E.01536
G1 X137.187 Y108.97 E.07502
G1 X137.456 Y111.286 E.0731
G1 X137.464 Y112.808 E.04772
G1 X137.292 Y114.303 E.04718
G1 X136.89 Y115.921 E.05227
G1 X136.196 Y117.638 E.05807
G1 X135.001 Y119.261 E.06319
G1 X133.948 Y120.084 E.0419
G1 X132.725 Y120.622 E.04189
G1 X131.161 Y120.797 E.04934
G1 X129.826 Y120.56 E.04251
G1 X128.706 Y120.069 E.03834
G1 X127.806 Y119.41 E.03497
G1 X126.455 Y120.192 E.04894
G1 X125.792 Y120.45 E.02231
G1 X124.9 Y120.671 E.02881
G1 X123.223 Y120.8 E.05274
G1 X121.423 Y120.516 E.05714
G1 X120.124 Y120.02 E.0436
G1 X119.295 Y119.548 E.02991
G1 X118.561 Y119.028 E.0282
G1 X117.885 Y118.395 E.02904
G1 X117.244 Y117.679 E.03013
G1 X116.479 Y116.452 E.04534
G1 X116.048 Y115.495 E.03291
G1 X115.729 Y114.487 E.03315
G1 X115.476 Y112.678 E.05727
G1 X115.516 Y111.538 E.03577
G1 X115.716 Y110.133 E.0445
G1 X116.079 Y108.753 E.04474
G1 X116.645 Y107.637 E.03923
G1 X117.28 Y106.657 E.03661
G1 X118.024 Y105.891 E.03348
G1 X117.294 Y105.187 E.0318
G1 X116.028 Y102.792 E.08494
G1 X115.595 Y100.693 E.0672
G1 X115.473 Y98.733 E.06157
G1 X115.693 Y96.738 E.06293
G1 X115.982 Y95.622 E.03615
G1 X116.353 Y94.616 E.03362
G1 X117.11 Y93.142 E.05195
G1 X117.688 Y92.429 E.02878
M204 S1000
G1 X117.953 Y92.641 F10800
M204 S800
G1 F1200
G1 X118.589 Y91.916 E.03024
G1 X120.045 Y90.809 E.05735
G1 X121.219 Y90.267 E.04054
G1 X123.65 Y89.941 E.0769
G1 X124.996 Y90.182 E.04287
G1 X126.145 Y90.62 E.03855
G1 X127.148 Y91.255 E.03722
G1 X128.148 Y92.168 E.04246
G1 X128.922 Y91.678 E.02872
G1 X129.604 Y91.374 E.02341
G1 X130.338 Y91.208 E.0236
G1 X131.652 Y91.213 E.0412
G1 X132.846 Y91.564 E.03902
G1 X133.409 Y91.873 E.02014
G1 X134.249 Y92.525 E.03334
G1 X135.104 Y93.527 E.0413
G1 X136.027 Y95.232 E.06079
G1 X136.75 Y97.616 E.07811
G1 X137.084 Y99.959 E.07421
G1 X137.099 Y101.097 E.03568
G1 X137.03 Y102.246 E.03609
G1 X136.796 Y103.907 E.05259
G1 X136.412 Y104.855 E.03207
G1 X135.925 Y105.722 E.03118
G1 X135.285 Y106.426 E.02983
G1 X135.832 Y107.002 E.02491
G1 X136.817 Y109.053 E.07134
G1 X137.079 Y111.298 E.07087
G1 X137.088 Y112.776 E.04634
G1 X136.922 Y114.233 E.04598
G1 X136.532 Y115.802 E.05069
G1 X135.879 Y117.432 E.05506
G1 X134.748 Y118.98 E.06011
G1 X133.735 Y119.772 E.04032
G1 X132.602 Y120.265 E.03874
G1 X131.149 Y120.419 E.04581
G1 X129.916 Y120.194 E.0393
G1 X128.878 Y119.734 E.0356
G1 X127.818 Y118.949 E.04136
G1 X127.009 Y119.487 E.03046
G1 X126.308 Y119.845 E.02468
G1 X124.845 Y120.298 E.04802
G1 X123.226 Y120.422 E.05091
G1 X121.539 Y120.157 E.05354
G1 X120.272 Y119.673 E.04253
G1 X119.49 Y119.225 E.02826
G1 X118.809 Y118.744 E.02614
G1 X118.16 Y118.137 E.02786
G1 X117.546 Y117.453 E.02882
G1 X116.812 Y116.273 E.04357
G1 X116.396 Y115.35 E.03174
G1 X116.093 Y114.389 E.03159
G1 X115.854 Y112.674 E.05429
G1 X115.891 Y111.571 E.0346
G1 X116.082 Y110.221 E.04275
G1 X116.438 Y108.869 E.04384
G1 X116.976 Y107.818 E.03702
G1 X117.586 Y106.878 E.03514
G1 X118.115 Y106.336 E.02375
G1 X118.792 Y105.925 E.02483
G1 X118.309 Y105.638 E.01762
G1 X117.612 Y104.982 E.03001
G1 X116.374 Y102.64 E.08306
G1 X115.967 Y100.631 E.06427
G1 X115.85 Y98.758 E.05884
G1 X116.066 Y96.793 E.06198
G1 X116.339 Y95.743 E.03402
G1 X117.097 Y93.91 E.06219
G1 X117.92 Y92.69 E.04614
M204 S1000
G1 X118.236 Y92.947 F10800
M204 S800
G1 F1200
G1 X118.864 Y92.175 E.0312
G1 X119.472 Y91.658 E.02502
G1 X120.218 Y91.145 E.02839
G1 X121.352 Y90.621 E.03917
G1 X123.613 Y90.317 E.07153
G1 X124.911 Y90.55 E.04135
G1 X125.992 Y90.965 E.03631
G1 X126.913 Y91.55 E.03421
G1 X127.723 Y92.244 E.03344
G1 X128.096 Y92.742 E.01951
G1 X129.11 Y92.006 E.03929
G1 X129.74 Y91.726 E.02162
G1 X130.375 Y91.584 E.0204
G1 X131.608 Y91.588 E.03866
G1 X132.679 Y91.903 E.035
G1 X133.19 Y92.18 E.01822
G1 X134.003 Y92.811 E.03227
G1 X134.803 Y93.756 E.03882
G1 X135.687 Y95.396 E.05842
G1 X136.088 Y96.58 E.03919
G1 X136.543 Y98.508 E.06211
G1 X136.708 Y99.991 E.04679
G1 X136.655 Y102.202 E.06934
G1 X136.437 Y103.788 E.0502
G1 X136.069 Y104.699 E.03081
G1 X135.599 Y105.531 E.02996
G1 X135.268 Y105.94 E.0165
G1 X134.686 Y106.437 E.024
G1 X135.507 Y107.196 E.03506
G1 X136.448 Y109.135 E.06758
G1 X136.702 Y111.309 E.06863
G1 X136.712 Y112.745 E.04503
G1 X136.551 Y114.163 E.04475
M73 Q1 S44
G1 X136.174 Y115.683 E.0491
G1 X135.561 Y117.228 E.05212
G1 X134.493 Y118.701 E.05705
G1 X133.562 Y119.436 E.03719
G1 X132.479 Y119.907 E.03703
G1 X131.139 Y120.041 E.04222
G1 X130.009 Y119.827 E.03606
G1 X129.052 Y119.398 E.03288
G1 X128.188 Y118.755 E.03377
G1 X127.844 Y118.34 E.0169
G1 X127.447 Y118.746 E.0178
G1 X126.811 Y119.167 E.02391
G1 X125.585 Y119.725 E.04223
G1 X124.766 Y119.929 E.02646
G1 X123.23 Y120.045 E.0483
G1 X121.655 Y119.797 E.04999
G1 X120.421 Y119.326 E.04141
G1 X119.685 Y118.903 E.02662
G1 X119.057 Y118.459 E.02411
G1 X118.435 Y117.878 E.02669
G1 X117.848 Y117.228 E.02746
G1 X117.144 Y116.095 E.04182
G1 X116.753 Y115.226 E.02988
G1 X116.458 Y114.291 E.03074
G1 X116.229 Y112.639 E.05229
G1 X116.268 Y111.591 E.03288
G1 X116.452 Y110.295 E.04104
G1 X116.798 Y108.985 E.04248
G1 X117.307 Y107.999 E.03479
G1 X117.892 Y107.1 E.03363
G1 X118.365 Y106.619 E.02115
G1 X119.555 Y105.918 E.0433
G1 X118.546 Y105.345 E.03638
G1 X117.93 Y104.776 E.02629
G1 X116.738 Y102.538 E.0795
G1 X116.339 Y100.569 E.06299
G1 X116.227 Y98.751 E.05711
G1 X116.439 Y96.849 E.06001
G1 X116.702 Y95.848 E.03245
G1 X117.044 Y94.92 E.03101
G1 X117.739 Y93.558 E.04794
G1 X118.198 Y92.994 E.0228
M204 S1000
G1 X118.489 Y93.231 F10800
M204 S800
G1 F1200
G1 X119.138 Y92.435 E.0322
G1 X120.391 Y91.48 E.0494
G1 X121.484 Y90.975 E.03775
G1 X123.575 Y90.694 E.06615
G1 X124.827 Y90.918 E.03988
G1 X125.806 Y91.294 E.03288
G1 X126.678 Y91.845 E.03234
G1 X127.461 Y92.515 E.03231
G1 X128.032 Y93.297 E.03036
G1 X128.765 Y92.663 E.03039
G1 X129.277 Y92.344 E.01891
G1 X129.842 Y92.09 E.01942
G1 X130.441 Y91.955 E.01925
G1 X131.563 Y91.962 E.03518
G1 X132.514 Y92.242 E.03108
G1 X132.971 Y92.488 E.01627
G1 X133.755 Y93.096 E.03111
G1 X134.501 Y93.983 E.03634
G1 X135.347 Y95.56 E.05611
G1 X136.017 Y97.796 E.07319
G1 X136.332 Y100.023 E.07052
G1 X136.345 Y101.066 E.03271
G1 X136.067 Y103.713 E.08345
G1 X135.726 Y104.541 E.02808
G1 X135.009 Y105.665 E.0418
G1 X134.657 Y105.966 E.01452
G1 X133.751 Y106.455 E.03228
G1 X134.694 Y106.904 E.03275
G1 X135.183 Y107.392 E.02166
G1 X136.079 Y109.219 E.0638
G1 X136.325 Y111.321 E.06636
G1 X136.336 Y112.714 E.04368
G1 X136.177 Y114.111 E.04408
G1 X135.816 Y115.564 E.04694
G1 X135.243 Y117.025 E.04921
G1 X134.237 Y118.423 E.054
G1 X133.388 Y119.1 E.03405
G1 X132.356 Y119.549 E.03529
G1 X131.133 Y119.663 E.03851
G1 X130.103 Y119.462 E.0329
G1 X129.261 Y119.084 E.02894
G1 X128.434 Y118.468 E.03233
G1 X127.87 Y117.763 E.02831
G1 X127.221 Y118.444 E.0295
